X:1
T:Aria Math
T:"Creative4"
T:Markus "Notch" Persson
T:Copyright © 2013 Mojang AB
T:Copyright © 2013 Mojang AB
T:Copyright © 2013 Mojang AB
T:Copyright © 2013 Mojang AB
T:Copyright © 2013 Mojang AB
T:Copyright © 2013 Mojang AB
T:Copyright © 2013 Mojang AB
T:Copyright © 2013 Mojang AB
Z:Copyright © 2013 Mojang AB
%%score { ( 1 3 ) | 2 }
L:1/8
Q:1/4=80
M:4/4
K:G
V:1 treble nm="Piano" snm="Pno."
V:3 treble 
V:2 bass 
V:1
"^Mysterious"!p! z8 | z8 |1 z8 | z8 :|2!<(! z8!<)! || z8 ||!mf! z/ B/G/E/ eB B/ed/- d/ee/- | %7
 e/Be/- e/ed/- d/eB/- B/eG/- | G/B/G/E/ ee/c/ B/c/B/G/- G/B/G/E/- | %9
!>(! E/B/G/E/ f/d/B/f/ d/B/f/d/ B/fe/-!>)! |!p! eB/e/ g/B/e/g/- g>e e/g/e/B/- | %11
 BB/e/ g/B/e/g/- g>e e/g/e/B/ | (3z z e (3!>!ee!>!e (3e!>!ee (3!>!ee!>!e | %13
 z/ B/G/E/ f/d/B/f/ d/B/f/d/ B/f/d/B/ | (3z z d (3!>!dd!>!d (3z z e (3!>!ee!>!e | [G,B,D]8- | %16
 [G,B,D]6 A,2 | [F,B,D]8- |!<(! [F,B,D]8!<)! |:!mf! B2 G6- | G6 d2 | F8 | B8 :| B2 [Gd]6- | %24
 [Gd]6 [df]2 | [F^c]8 | [FBd]8 | B2 [Gd]6- | [Gd]6 [Edf]2 | [FB^c]8 | [FBd]8 |!<(! B2 [Gd]6- | %32
 [Gd]6 x a/!<)!g/ |!ff! f4 d4 | BA/d/ BA/d/ BA/d/ BA | B2 [Gd]6- | [Gd]6 x a/g/ |!>(! f4 d4!>)! | %38
 BA/d/ BA/d/ BA/d/ BA |!p! z8 | z8 | z8 | z8 |: B/B,E/ G6 | z4 z2 dB | F>E- E6 | z8 :| [GABd]8- | %48
 [GABd]8 | [FABd]8- |!<(! [FABd]8!<)! |:!f! B/B,E/ G4- GF | G/E/B/E/- E4 dB | F>E- E6 | z8 :: %55
 b/Be/ g4- gf | g/e/b/e/- e4 d'b | f>e- e6 | z8 :| b/Be/ g4- gf | g/e/b/e/- e4 d'b | f>e- e6 | z8 | %63
!<(! b/Be/ g4- gf!<)! | g/e/b/e/- e4 d'b | f>e- e6 | z8 |: [G,B,E]8 | [GBd]4 [Bdg]4 | %69
 [Adf]4 [FAd]4 | [EGc]4 [CEA]4 ::!p! B/B,E/ G6 | z4 z2 dB | F>E- E6 |1 z8 :|2 z8 |] %76
V:2
 C,/B,E/ E,B, E,G,/C/ B,G, | C,/B,E/ E,B, E,G,/C/ B,G, |1 C,/B,E/ E,B, E,G,/C/ B,G, | %3
 C,/B,E/ E,B, E,G,/C/ B,G, :|2 E,/B,E/ E,B, E,G,/C/ B,G, || E,/B,E/ E,B, E,G,/C/ B,G, || %6
 C,/B,E/ E,B, E,G,/C/ B,G, | C,/B,E/ E,B, E,G,/C/ B,G, | C,/B,E/ E,B, E,G,/C/ B,G, | %9
 C,/B,E/ E,B, E,G,/C/ B,G, | C,/B,E/ E,B, E,G,/C/ B,G, | C,/B,E/ E,B, E,G,/C/ B,G, | %12
 C,/B,E/ E,B, E,G,/C/ B,G, | C,/B,E/ E,B, E,G,/C/ B,G, | C,/B,E/ E,B, E,G,/C/ B,G, | %15
 E,,/B,,E,/ E,,B,, E,,G,,/C,/ B,,G,, | E,,/B,,E,/ E,,B,, E,,G,,/C,/ B,,G,, | %17
 E,,/B,,E,/ g''''B,, E,,G,,/C,/ B,,G,, | E,,/B,,E,/ E,,B,, E,,G,,/C,/ B,,G,, |: %19
 E,,/B,,E,/ E,,B,, E,,G,,/C,/ B,,G,, | E,,/B,,E,/ E,,B,, E,,G,,/C,/ B,,G,, | %21
 E,,/B,,E,/ E,,B,, E,,G,,/C,/ B,,G,, | E,,/B,,E,/ E,,B,, E,,G,,/C,/ B,,G,, :| %23
 E,,/B,,E,/ E,,B,, E,,G,,/C,/ B,,G,, | E,,/B,,E,/ E,,B,, E,,G,,/C,/ B,,G,, | %25
 E,,/B,,E,/ E,,B,, E,,G,,/C,/ B,,G,, | E,,/B,,E,/ E,,B,, E,,G,,/C,/ B,,G,, | %27
 E,,/B,,E,/ E,,B,, E,,G,,/C,/ B,,G,, | E,,/B,,E,/ E,,B,, E,,G,,/C,/ B,,G,, | %29
 E,,/B,,E,/ E,,B,, E,,G,,/C,/ B,,G,, | E,,/B,,E,/ E,,B,, E,,G,,/C,/ B,,G,, | %31
 E,,/B,,E,/ E,,B,, E,,G,,/C,/ B,,G,, | E,,/B,,E,/ E,,B,, E,,G,,/C,/ B,,G,, | %33
 E,,/"^possible"B,,E,/ E,,B,, E,,G,,/C,/ B,,G,, | E,,/B,,E,/ E,,B,, E,,G,,/C,/ B,,G,, | %35
 E,,/B,,E,/ E,,B,, E,,G,,/C,/ B,,G,, | E,,/B,,E,/ E,,B,, E,,G,,/C,/ B,,G,, | %37
 E,,/B,,E,/ E,,B,, E,,G,,/C,/ B,,G,, | E,,/B,,E,/ E,,B,, E,,G,,/C,/ B,,G,, | %39
 C,/B,E/ E,B, E,G,/C/ B,G, | C,/B,E/ E,B, E,G,/C/ B,G, | E,/B,E/ E,B, E,G,/C/ B,G, | %42
 E,/B,E/ E,B, E,G,/C/ B,G, |: C,/B,E/ C,B, C,G,/C/ B,G, | C,/B,E/ C,B, C,G,/C/ B,G, | %45
 E,/B,D/ E,B, E,G,/C/ B,G, | E,/B,E/ E,B, E,G,/C/ B,G, :| C,/B,E/ C,B, C,G,/C/ B,G, | %48
 C,/B,E/ C,B, C,G,/C/ B,G, | E,/B,D/ E,B, E,G,/C/ B,G, | E,/B,E/ E,B, E,G,/C/ B,G, |: %51
 C,2 E,2 E,2 z2 | C,2 E,2 E,2 z2 | E,,2 E,2 E,2 z2 | E,,2 E,2 E,2 z2 :: %55
 [E,,B,,E,]2 [E,,B,,E,]2 [E,,B,,E,]>B,, E,B,, | [G,,D,G,]2 [G,,D,G,]2 [G,,D,G,]>D, B,D, | %57
 [D,F,A,D]2 [D,F,A,D]2 [D,F,A,D]>A, DA, | [C,E,G,C]2 [C,E,G,C]2 [C,E,G,C]>G, CG, :| %59
!ped! [E,,E,]B,,[E,,E,]B,, [E,,E,]B,,[E,,E,]B,,!ped-up! | %60
!ped! [G,,G,]D,[G,,G,]D, [G,,G,]D,[G,,G,]D,!ped-up! | %61
!ped! [D,,D,]A,,[D,,D,]A,, [D,,D,]A,,[D,,D,]A,,!ped-up! | %62
!ped! [C,,C,]G,,[C,,C,]G,, [C,,C,]G,,[C,,C,]G,,!ped-up! | %63
!ped! [E,,E,]B,,[E,,E,]B,, [E,,E,]B,,[E,,E,]B,,!ped-up! | %64
!ped! [G,,G,]D,[G,,G,]D, [G,,G,]D,[G,,G,]D,!ped-up! | %65
!ped! [D,,D,]A,,[D,,D,]A,, [D,,D,]A,,[D,,D,]A,,!ped-up! | %66
!ped! [C,,C,]G,,[C,,C,]G,, [C,,C,]G,,[C,,C,]G,,!ped-up! |: %67
!ff!!ped! [E,,E,]B,,[E,,E,]B,, [E,,E,]B,,[E,,E,]B,,!ped-up! | %68
!ped! [G,,G,]D,[G,,G,]D, [G,,G,]D,[G,,G,]D,!ped-up! | %69
!ped! [D,,D,]A,,[D,,D,]A,, [D,,D,]A,,[D,,D,]A,,!ped-up! | %70
!ped! [C,,C,]G,,[C,,C,]G,, [C,,C,]G,,[C,,C,]G,,!ped-up! :: C,/B,E/ C,B, C,G,/C/ B,G, | %72
 C,/B,E/ C,B, C,G,/C/ B,G, | E,/B,D/ E,B, E,G,/C/ B,G, |1 E,/B,E/ E,B, E,G,/C/ B,G, :|2 %75
 E,/B,E/ E,B, E,G,/C/ !fermata!B,2 |] %76
V:3
 x8 | x8 |1 x8 | x8 :|2 x8 || x8 || x8 | x8 | x8 | x8 | x8 | x8 | x8 | x8 | x8 | x8 | x8 | x8 | %18
 x8 |: x8 | x8 | x8 | x8 :| x8 | x8 | x8 | x8 | x8 | x8 | x8 | x8 | x8 | x4 x2 [Edf]2 | [FB^c]8 | %34
 x8 | x8 | x4 x2 [Edf]2 | [FB^c]8 | x8 | x8 | x8 | x8 | x8 |: x8 | x8 | x8 | x8 :| x8 | x8 | x8 | %50
 x8 |: x8 | x8 | x8 | x8 :: x8 | x8 | x8 | x8 :| x8 | x8 | x8 | x8 | x8 | x8 | x8 | x8 |: x8 | x8 | %69
 x8 | x8 :: x8 | x8 | x8 |1 x8 :|2 x8 |] %76

